!!!COM: Palestrina, Giovanni Perluigi da
!!!OPR: Missa Tu es Petrus (1601)
!!!OTL: Agnus I
**kern	**kern	**kern	**kern	**kern	**kern
*Ibass	*Itenor	*Itenor	*Icalto	*Icalto	*Icant
!Bassus	!Tenor 2	!Tenor 1	!Altus 2	!Altus 1	!Cantus
*clefF4	*clefGv2	*clefGv2	*clefG2	*clefG2	*clefG2
*k[]	*k[]	*k[]	*k[]	*k[]	*k[]
*G:mix	*G:mix	*G:mix	*G:mix	*G:mix	*G:mix
*M4/2	*M4/2	*M4/2	*M4/2	*M4/2	*M4/2
=1	=1	=1	=1	=1	=1
0r	0r	0r	0r	0r	0dd
=2	=2	=2	=2	=2	=2
0r	0r	0r	0g	0r	1b
.	.	.	.	.	1dd
=3	=3	=3	=3	=3	=3
0r	0r	0r	1e	0r	1ee
.	.	.	1g	.	2dd
.	.	.	.	.	[2gg
=4	=4	=4	=4	=4	=4
0r	0r	0r	1a	0r	2gg]
.	.	.	.	.	2ff
.	.	.	2g	.	1ee
.	.	.	[2cc	.	.
=5	=5	=5	=5	=5	=5
0r	0r	0r	2cc]	0g	0dd
.	.	.	4b	.	.
.	.	.	4a	.	.
.	.	.	2.b	.	.
.	.	.	4a	.	.
=6	=6	=6	=6	=6	=6
0r	0r	0r	4g	1e	2.gg
.	.	.	4f	.	.
.	.	.	4e	.	.
.	.	.	4d	.	4ff
.	.	.	2c	1g	4ee
.	.	.	.	.	4dd
.	.	.	2c	.	2ee
=7	=7	=7	=7	=7	=7
0r	0r	0r	1f	1a	2dd
.	.	.	.	.	2.cc
.	.	.	2.e	2g	.
.	.	.	.	.	4b
.	.	.	.	[2cc	2ee
.	.	.	4f	.	.
=8	=8	=8	=8	=8	=8
0r	0r	1r	1.g	2cc]	0dd
.	.	.	.	2b	.
.	.	[1d	.	[1a	.
.	.	.	4f#	.	.
.	.	.	4e	.	.
=9	=9	=9	=9	=9	=9
1r	0r	1d]	1f#	1a]	0dd
[1G	.	1B	2g	[1g	.
.	.	.	[2d	.	.
=10	=10	=10	=10	=10	=10
1G]	1r	1d	2d]	1g]	1.b
.	.	.	1B	.	.
1E	[1g	1e	.	1r	.
.	.	.	[2c	.	2g
=11	=11	=11	=11	=11	=11
1G	1g]	1d	2c]	0r	1dd
.	.	.	2B	.	.
1A	1e	2r	1c	.	4cc
.	.	.	.	.	4dd
.	.	[2c	.	.	4ee
.	.	.	.	.	4cc
=12	=12	=12	=12	=12	=12
1G	1g	2c]	0r	1d	1dd
.	.	2B	.	.	.
2r	1a	2A	.	2e	1cc
[2c	.	2F	.	2f	.
=13	=13	=13	=13	=13	=13
2c]	1g	1G	2r	1d	0r
2B	.	.	2d	.	.
2A	2r	[1c	2e	1a	.
4F	[2f	.	2f	.	.
4G	.	.	.	.	.
=14	=14	=14	=14	=14	=14
4A	2f]	1c]	4c	2a	1r
4B	.	.	4d	.	.
1c	2e	.	4e	2.g	.
.	.	.	4f	.	.
.	[1d	[1G	[1g	.	2r
.	.	.	.	8f	.
.	.	.	.	8e	.
4B	.	.	.	2d	2dd
4A	.	.	.	.	.
=15	=15	=15	=15	=15	=15
2B	1d]	1G]	1g]	2G	2dd
2G	.	.	.	1g	2b
1A	1c	1r	1r	.	1cc
.	.	.	.	2f#	.
=16	=16	=16	=16	=16	=16
1G	2.d	2r	0r	2.g	1b
.	.	2g	.	.	.
.	4c	.	.	8f	.
.	.	.	.	8e	.
1r	2B	2g	.	2d	1g
.	2c	2e	.	2e	.
=17	=17	=17	=17	=17	=17
0r	4F	1f	1r	1c	1a
.	4G	.	.	.	.
.	4A	.	.	.	.
.	4B	.	.	.	.
.	2.c	1e	2r	1r	2g
.	.	.	2g	.	[2cc
.	4d	.	.	.	.
=18	=18	=18	=18	=18	=18
0r	2e	1c	2g	2r	4cc]
.	.	.	.	.	4dd
.	2A	.	2e	2a	1ee
.	1r	1d	1f	2a	.
.	.	.	.	2f	2dd
=19	=19	=19	=19	=19	=19
2r	1r	4c	1e	1g	1ee
.	.	4d	.	.	.
2c	.	4e	.	.	.
.	.	4f	.	.	.
2c	2r	2g	1c	2e	1r
2A	2f	4f	.	[2a	.
.	.	4e	.	.	.
=20	=20	=20	=20	=20	=20
1B-	2f	2d	1d	2a]	0r
.	2d	2G	.	2g	.
1A	1e	[1c	2c	2a	.
.	.	.	2A	2cc	.
=21	=21	=21	=21	=21	=21
1F	1f	1c]	2a	2cc	0r
.	.	.	2a	2a	.
1G	2e	2r	1g	1b-	.
.	[2d	2d	.	.	.
=22	=22	=22	=22	=22	=22
2F	4d]	1f	1c	2a	1r
.	4c	.	.	.	.
2A	1c	.	.	2f	.
2.G	.	2e	1r	1g	2r
.	2B	[2d	.	.	2gg
4F	.	.	.	.	.
=23	=23	=23	=23	=23	=23
2E	1e	4d]	2r	1g	2gg
.	.	4c	.	.	.
2C	.	1c	2g	.	2ee
1D	1d	.	2f	1r	1ff
.	.	2B	2d	.	.
=24	=24	=24	=24	=24	=24
1C	1g	2.c	2.e	2r	1.ee
.	.	.	.	2cc	.
.	.	4d	4f	.	.
1r	1r	2e	2g	2cc	.
.	.	2f	[2a	2a	2cc
=25	=25	=25	=25	=25	=25
0r	0r	0d	2a]	1b-	1dd
.	.	.	1g	.	.
.	.	.	.	1a	1dd
.	.	.	2f#	.	.
=26	=26	=26	=26	=26	=26
1.c	1r	0r	0g	2g	1.ee
.	.	.	.	1e	.
.	2r	.	.	.	.
2c	[2g	.	.	2c	2ee
=27	=27	=27	=27	=27	=27
1B	2g]	0r	0r	1d	1dd
.	2g	.	.	.	.
1A	1a	.	.	2f	1cc
.	.	.	.	[2e	.
=28	=28	=28	=28	=28	=28
1.c	4g	2r	0r	4e]	1.ee
.	4f	.	.	4d	.
.	4e	1g	.	4c	.
.	4d	.	.	4d	.
.	2c	.	.	4e	.
.	.	.	.	4f	.
2B	2d	2g	.	2g	2dd
=29	=29	=29	=29	=29	=29
0A	1e	1a	2r	1c	1cc
.	.	.	1cc	.	.
.	1c	2e	.	1r	1a
.	.	2f#	2cc	.	.
=30	=30	=30	=30	=30	=30
1G	2r	2.g	0b	2r	[0dd
.	2.G	.	.	1g	.
.	.	8f	.	.	.
.	.	8e	.	.	.
1r	.	2.d	.	.	.
.	4A	.	.	.	.
.	4B	.	.	2g	.
.	4c	4e	.	.	.
=31	=31	=31	=31	=31	=31
0r	2d	4f	1a	1f	1dd]
.	.	4g	.	.	.
.	2d	1a	.	.	.
.	2A	.	[1cc	1e	1r
.	2c	[2g	.	.	.
=32	=32	=32	=32	=32	=32
0r	1G	4g]	2cc]	1.g	1.dd
.	.	8f	.	.	.
.	.	8e	.	.	.
.	.	2d	2b	.	.
.	1d	1r	1a	.	.
.	.	.	.	2f	2dd
=33	=33	=33	=33	=33	=33
1.C	2r	2r	1g	0e	1ee
.	2g	1c	.	.	.
.	2g	.	2r	.	1cc
2C	4G	2c	[2g	.	.
.	4A	.	.	.	.
=34	=34	=34	=34	=34	=34
1G	4B	1B	2g]	1d	1.dd
.	4c	.	.	.	.
.	4d	.	2g	.	.
.	4e	.	.	.	.
2D	2f	1A	1f	1a	.
2F	2F	.	.	.	[2cc
=35	=35	=35	=35	=35	=35
2.C	0G	1.c	1e	1g	4cc]
.	.	.	.	.	4b
.	.	.	.	.	2.g
4D	.	.	.	.	.
4E	.	.	[1g	2e	.
4F	.	.	.	.	4a
2G	.	2B	.	2d	4b
.	.	.	.	.	4cc
=36	=36	=36	=36	=36	=36
0D	2A	0A	2g]	1a	0dd
.	2.d	.	4f#	.	.
.	.	.	4e	.	.
.	.	.	1f#	1d	.
.	4c	.	.	.	.
.	2A	.	.	.	.
=37	=37	=37	=37	=37	=37
0G	0B	0G	0g	0d	0dd
==	==	==	==	==	==
*-	*-	*-	*-	*-	*-
!!!CDT: 1525/^1526/-1594/2/2
!!!OCY: Italia
!!!AGN: Mass (Paraphrase)
!!!AST: renaissance, vocal
!!!ASW: Antiphon
!!!PWK: Masses, Book 12
!!!RNB: Cadence finals: C
!!!YOR: Le Opere Complete, v. 29, p. 123
!!!YOO: Rome, Italy: Fratelli Scalera
!!!END: 1992//
!!!EED: John Miller
!!!YEC: Copyright 2000, John Miller
!!!YEN: United States of America
!!!YEM: Rights to all derivative electronic formats reserved.
!!!YEM: Refer to licensing agreement for further details.
!!!YEM: This file must be accompanied by the licensing agreement.
!!!YEM: A copy of the licensing agreement may be found at http://www.music-cog.ohio-state.edu/HumdrumDatabases/Palestrina/license.txt
!!!EMD: converted to Humdrum by Bret Aarden
